X: 11573
T: Edmund MacKenzie Of Plockton
R: jig
M: 6/8
K: Gmajor
|:DEF GAB|d2 d B3|c2 c A3|d2 d B3|
DEF G2 B|d2 d B3|d^cd =c2 F|G3 G3:|
|:e3 c3|d^cd B3|cBc D2 A|d2 c B2 d|
e3 c3|d^cd B3|ded c2 A|G3- G3:|

